svg/ok_negative.svg

<svg width="48" height="48" viewBox="0 0 48 48" fill="none" xmlns="http://www.w3.org/2000/svg">
<path fill-rule="evenodd" clip-rule="evenodd" d="M24 4.52002C21.4419 4.52002 18.9088 5.02388 16.5453 6.00285C14.1819 6.98181 12.0345 8.41669 10.2256 10.2256C8.41669 12.0345 6.98181 14.1819 6.00285 16.5453C5.02388 18.9088 4.52002 21.4419 4.52002 24C4.52002 26.5582 5.02388 29.0913 6.00285 31.4547C6.98181 33.8181 8.41669 35.9656 10.2256 37.7745C12.0345 39.5833 14.1819 41.0182 16.5453 41.9972C18.9088 42.9762 21.4419 43.48 24 43.48C29.1664 43.48 34.1213 41.4277 37.7745 37.7745C41.4277 34.1213 43.48 29.1664 43.48 24C43.48 18.8336 41.4277 13.8788 37.7745 10.2256C34.1213 6.57237 29.1664 4.52002 24 4.52002ZM17.15 13.88C19.1 13.88 20.68 15.98 20.68 18.57C20.68 21.15 19.1 23.25 17.15 23.25C15.19 23.25 13.61 21.15 13.61 18.57C13.61 15.98 15.19 13.88 17.15 13.88ZM30.05 13.88C32 13.88 33.59 15.98 33.59 18.57C33.59 21.15 32 23.25 30.05 23.25C28.1 23.25 26.51 21.15 26.52 18.57C26.52 15.98 28.1 13.88 30.05 13.88ZM11.14 28.38H11.64C11.68 31.98 13.95 35.29 17.61 37.1C19.4737 37.9984 21.5161 38.465 23.585 38.465C25.654 38.465 27.6963 37.9984 29.56 37.1C33.22 35.3 35.49 31.98 35.53 28.38H36.06C36.06 32.17 33.68 35.67 29.83 37.56C25.97 39.46 21.22 39.46 17.36 37.56C13.51 35.66 11.13 32.16 11.14 28.37V28.38Z" fill="#333333"/>
</svg>

<?xml version="1.0" encoding="UTF-8" standalone="no"?>
<!-- Created with Inkscape (http://www.inkscape.org/) -->
<svg id="svg8" xmlns:rdf="http://www.w3.org/1999/02/22-rdf-syntax-ns#" xmlns="http://www.w3.org/2000/svg" xmlns:osb="http://www.openswatchbook.org/uri/2009/osb" height="48" width="48" version="1.1" xmlns:cc="http://creativecommons.org/ns#" viewBox="0 0 12.7 12.7" xmlns:dc="http://purl.org/dc/elements/1.1/">
 <title id="title4753">UIO-icon</title>
 <metadata id="metadata5">
  <rdf:RDF>
   <cc:Work rdf:about="">
    <dc:format>image/svg+xml</dc:format>
    <dc:type rdf:resource="http://purl.org/dc/dcmitype/StillImage"/>
    <dc:title>UIO-icon</dc:title>
    <dc:creator>
     <cc:Agent>
      <dc:title>Joaquín Urbano</dc:title>
     </cc:Agent>
    </dc:creator>
    <dc:rights>
     <cc:Agent>
      <dc:title>GPL</dc:title>
     </cc:Agent>
    </dc:rights>
   </cc:Work>
  </rdf:RDF>
 </metadata>
 <g id="layer1" fill="#333" transform="translate(0,-284.3)">
  <path id="rect1040" d="m24 4.5176c-10.76 0-19.482 8.7224-19.482 19.482-0.0004 10.76 8.722 19.482 19.482 19.482s19.482-8.722 19.482-19.482-8.722-19.482-19.482-19.482zm-6.854 9.3654c1.953-0.001 3.537 2.096 3.538 4.683 0 2.589-1.584 4.687-3.538 4.686-1.952 0-3.535-2.098-3.535-4.686 0.001-2.586 1.583-4.683 3.535-4.683zm12.905 0c1.953-0.001 3.536 2.096 3.537 4.683 0 2.589-1.584 4.687-3.537 4.686-1.953 0-3.536-2.098-3.535-4.686 0-2.586 1.583-4.683 3.535-4.683zm-18.914 14.49h0.504c0.041 3.603 2.31 6.919 5.966 8.723 3.698 1.822 8.255 1.822 11.954 0.002 3.657-1.802 5.928-5.117 5.972-8.719h0.528c-0.001 3.789-2.376 7.291-6.233 9.185-3.857 1.895-8.609 1.894-12.465-0.002-3.855-1.896-6.229-5.399-6.226-9.189z" fill-rule="evenodd" transform="matrix(.26458 0 0 .26458 0 284.3)"/>
 </g>
</svg>
